X:1
T:Title
L:1/8
M:4/4
K:G
V:1 treble nm="Grand Piano"
V:1
 z4 z[Q:1/4=100] A2 B | B2 B2 AAAc | B4- B A2 B | B3 B- B A2 G | F4 E E2 D | EDEF D3 C | %6
 B,2 A,2- A, E2 D | E2 AG FEDC | B,4- B, B2 B | B3 B A ^G2 B | A2 A2- A A2 A | A4 F c2 B | %12
 G4- G G2 G | G3 B- B A2 G | F>E D4 DE | F>E DF- F A2 F | G/A/ B3- B3- B/ z/ | z BBB BAA^G | %18
 A4 A4- | AAAA AcBA | G4 G4- | GGGF EFGA | B4 B4- | BBBB BdcB | A4 A4- | AAAA d2 c2 | B4 B3 A | %27
 d4 c4 | B6 z2 |] %29

